X:1
T:The Indian Queen
C:Traditional
M:4/4
L:1/4
Q:1/4=104
K:G
B/2c/2 | d B G B | c2 A2 | G B B d | c2 d B/2c/2 |
e c A c | d2 B2 | G B B d | G4 |]
